<?xml version="1.0" encoding="UTF-8"?>
<map version="1.5" tiledversion="1.7.2" orientation="orthogonal" renderorder="right-down" width="24" height="44" tilewidth="16" tileheight="16" infinite="0" nextlayerid="3" nextobjectid="1">
 <tileset firstgid="1" name="route 19 tileset" tilewidth="16" tileheight="16" tilecount="1024" columns="32">
  <image source="../TilesetPreviews/Vermilion.png" trans="ffffff" width="512" height="512"/>
 </tileset>
 <layer id="1" name="Tile Layer 1" width="24" height="44">
  <properties>
   <property name="Anims1" value="WaterAnimationID"/>
   <property name="ChapterID" value="Route19Ch"/>
   <property name="Main" value=""/>
   <property name="MapChangesID" value="Route19MapChanges"/>
   <property name="MapID" value="Route19Map"/>
   <property name="ObjectType" value="VermilionObj"/>
   <property name="PaletteID" value="VermilionPal"/>
   <property name="TileConfig" value="VermilionConf"/>
  </properties>
  <data>
   <tile gid="426"/>
   <tile gid="642"/>
   <tile gid="427"/>
   <tile gid="427"/>
   <tile gid="427"/>
   <tile gid="428"/>
   <tile gid="428"/>
   <tile gid="173"/>
   <tile gid="173"/>
   <tile gid="173"/>
   <tile gid="173"/>
   <tile gid="173"/>
   <tile gid="174"/>
   <tile gid="168"/>
   <tile gid="168"/>
   <tile gid="168"/>
   <tile gid="168"/>
   <tile gid="426"/>
   <tile gid="642"/>
   <tile gid="427"/>
   <tile gid="427"/>
   <tile gid="427"/>
   <tile gid="428"/>
   <tile gid="428"/>
   <tile gid="426"/>
   <tile gid="642"/>
   <tile gid="427"/>
   <tile gid="427"/>
   <tile gid="427"/>
   <tile gid="428"/>
   <tile gid="428"/>
   <tile gid="175"/>
   <tile gid="175"/>
   <tile gid="175"/>
   <tile gid="175"/>
   <tile gid="203"/>
   <tile gid="236"/>
   <tile gid="168"/>
   <tile gid="168"/>
   <tile gid="168"/>
   <tile gid="168"/>
   <tile gid="426"/>
   <tile gid="642"/>
   <tile gid="427"/>
   <tile gid="427"/>
   <tile gid="427"/>
   <tile gid="428"/>
   <tile gid="428"/>
   <tile gid="426"/>
   <tile gid="642"/>
   <tile gid="427"/>
   <tile gid="427"/>
   <tile gid="427"/>
   <tile gid="428"/>
   <tile gid="428"/>
   <tile gid="175"/>
   <tile gid="175"/>
   <tile gid="175"/>
   <tile gid="203"/>
   <tile gid="236"/>
   <tile gid="168"/>
   <tile gid="168"/>
   <tile gid="168"/>
   <tile gid="168"/>
   <tile gid="168"/>
   <tile gid="426"/>
   <tile gid="642"/>
   <tile gid="427"/>
   <tile gid="427"/>
   <tile gid="427"/>
   <tile gid="428"/>
   <tile gid="428"/>
   <tile gid="426"/>
   <tile gid="642"/>
   <tile gid="427"/>
   <tile gid="427"/>
   <tile gid="427"/>
   <tile gid="428"/>
   <tile gid="675"/>
   <tile gid="676"/>
   <tile gid="676"/>
   <tile gid="677"/>
   <tile gid="196"/>
   <tile gid="168"/>
   <tile gid="168"/>
   <tile gid="168"/>
   <tile gid="168"/>
   <tile gid="168"/>
   <tile gid="168"/>
   <tile gid="426"/>
   <tile gid="642"/>
   <tile gid="427"/>
   <tile gid="427"/>
   <tile gid="427"/>
   <tile gid="428"/>
   <tile gid="428"/>
   <tile gid="426"/>
   <tile gid="642"/>
   <tile gid="427"/>
   <tile gid="427"/>
   <tile gid="427"/>
   <tile gid="428"/>
   <tile gid="428"/>
   <tile gid="175"/>
   <tile gid="175"/>
   <tile gid="175"/>
   <tile gid="196"/>
   <tile gid="168"/>
   <tile gid="168"/>
   <tile gid="168"/>
   <tile gid="168"/>
   <tile gid="168"/>
   <tile gid="168"/>
   <tile gid="426"/>
   <tile gid="678"/>
   <tile gid="679"/>
   <tile gid="427"/>
   <tile gid="427"/>
   <tile gid="428"/>
   <tile gid="428"/>
   <tile gid="426"/>
   <tile gid="642"/>
   <tile gid="427"/>
   <tile gid="427"/>
   <tile gid="427"/>
   <tile gid="428"/>
   <tile gid="675"/>
   <tile gid="676"/>
   <tile gid="677"/>
   <tile gid="175"/>
   <tile gid="209"/>
   <tile gid="174"/>
   <tile gid="168"/>
   <tile gid="168"/>
   <tile gid="168"/>
   <tile gid="168"/>
   <tile gid="168"/>
   <tile gid="426"/>
   <tile gid="427"/>
   <tile gid="642"/>
   <tile gid="427"/>
   <tile gid="427"/>
   <tile gid="428"/>
   <tile gid="428"/>
   <tile gid="426"/>
   <tile gid="678"/>
   <tile gid="679"/>
   <tile gid="427"/>
   <tile gid="680"/>
   <tile gid="705"/>
   <tile gid="428"/>
   <tile gid="175"/>
   <tile gid="175"/>
   <tile gid="175"/>
   <tile gid="175"/>
   <tile gid="209"/>
   <tile gid="174"/>
   <tile gid="168"/>
   <tile gid="168"/>
   <tile gid="5"/>
   <tile gid="329"/>
   <tile gid="647"/>
   <tile gid="427"/>
   <tile gid="642"/>
   <tile gid="427"/>
   <tile gid="680"/>
   <tile gid="705"/>
   <tile gid="428"/>
   <tile gid="426"/>
   <tile gid="427"/>
   <tile gid="678"/>
   <tile gid="706"/>
   <tile gid="705"/>
   <tile gid="427"/>
   <tile gid="675"/>
   <tile gid="676"/>
   <tile gid="676"/>
   <tile gid="676"/>
   <tile gid="677"/>
   <tile gid="175"/>
   <tile gid="196"/>
   <tile gid="168"/>
   <tile gid="5"/>
   <tile gid="5"/>
   <tile gid="194"/>
   <tile gid="647"/>
   <tile gid="427"/>
   <tile gid="678"/>
   <tile gid="706"/>
   <tile gid="705"/>
   <tile gid="427"/>
   <tile gid="428"/>
   <tile gid="707"/>
   <tile gid="706"/>
   <tile gid="706"/>
   <tile gid="706"/>
   <tile gid="706"/>
   <tile gid="706"/>
   <tile gid="708"/>
   <tile gid="195"/>
   <tile gid="195"/>
   <tile gid="195"/>
   <tile gid="203"/>
   <tile gid="304"/>
   <tile gid="236"/>
   <tile gid="168"/>
   <tile gid="168"/>
   <tile gid="329"/>
   <tile gid="225"/>
   <tile gid="709"/>
   <tile gid="706"/>
   <tile gid="706"/>
   <tile gid="706"/>
   <tile gid="706"/>
   <tile gid="706"/>
   <tile gid="433"/>
   <tile gid="198"/>
   <tile gid="198"/>
   <tile gid="198"/>
   <tile gid="198"/>
   <tile gid="198"/>
   <tile gid="198"/>
   <tile gid="198"/>
   <tile gid="199"/>
   <tile gid="674"/>
   <tile gid="203"/>
   <tile gid="236"/>
   <tile gid="168"/>
   <tile gid="168"/>
   <tile gid="168"/>
   <tile gid="5"/>
   <tile gid="194"/>
   <tile gid="366"/>
   <tile gid="198"/>
   <tile gid="198"/>
   <tile gid="198"/>
   <tile gid="198"/>
   <tile gid="198"/>
   <tile gid="198"/>
   <tile gid="198"/>
   <tile gid="1"/>
   <tile gid="272"/>
   <tile gid="10"/>
   <tile gid="10"/>
   <tile gid="10"/>
   <tile gid="10"/>
   <tile gid="10"/>
   <tile gid="2"/>
   <tile gid="195"/>
   <tile gid="196"/>
   <tile gid="168"/>
   <tile gid="5"/>
   <tile gid="168"/>
   <tile gid="5"/>
   <tile gid="168"/>
   <tile gid="194"/>
   <tile gid="357"/>
   <tile gid="10"/>
   <tile gid="33"/>
   <tile gid="34"/>
   <tile gid="10"/>
   <tile gid="10"/>
   <tile gid="10"/>
   <tile gid="10"/>
   <tile gid="1"/>
   <tile gid="1"/>
   <tile gid="1"/>
   <tile gid="272"/>
   <tile gid="10"/>
   <tile gid="33"/>
   <tile gid="34"/>
   <tile gid="2"/>
   <tile gid="195"/>
   <tile gid="196"/>
   <tile gid="168"/>
   <tile gid="168"/>
   <tile gid="5"/>
   <tile gid="168"/>
   <tile gid="168"/>
   <tile gid="194"/>
   <tile gid="357"/>
   <tile gid="10"/>
   <tile gid="42"/>
   <tile gid="43"/>
   <tile gid="10"/>
   <tile gid="35"/>
   <tile gid="36"/>
   <tile gid="10"/>
   <tile gid="1"/>
   <tile gid="1"/>
   <tile gid="1"/>
   <tile gid="1"/>
   <tile gid="10"/>
   <tile gid="42"/>
   <tile gid="43"/>
   <tile gid="2"/>
   <tile gid="195"/>
   <tile gid="196"/>
   <tile gid="168"/>
   <tile gid="5"/>
   <tile gid="5"/>
   <tile gid="168"/>
   <tile gid="168"/>
   <tile gid="194"/>
   <tile gid="357"/>
   <tile gid="10"/>
   <tile gid="10"/>
   <tile gid="10"/>
   <tile gid="10"/>
   <tile gid="75"/>
   <tile gid="76"/>
   <tile gid="10"/>
   <tile gid="1"/>
   <tile gid="1"/>
   <tile gid="1"/>
   <tile gid="1"/>
   <tile gid="10"/>
   <tile gid="35"/>
   <tile gid="36"/>
   <tile gid="2"/>
   <tile gid="195"/>
   <tile gid="196"/>
   <tile gid="168"/>
   <tile gid="5"/>
   <tile gid="168"/>
   <tile gid="168"/>
   <tile gid="329"/>
   <tile gid="225"/>
   <tile gid="357"/>
   <tile gid="35"/>
   <tile gid="36"/>
   <tile gid="10"/>
   <tile gid="10"/>
   <tile gid="10"/>
   <tile gid="10"/>
   <tile gid="10"/>
   <tile gid="1"/>
   <tile gid="1"/>
   <tile gid="1"/>
   <tile gid="11"/>
   <tile gid="10"/>
   <tile gid="75"/>
   <tile gid="76"/>
   <tile gid="2"/>
   <tile gid="195"/>
   <tile gid="196"/>
   <tile gid="5"/>
   <tile gid="5"/>
   <tile gid="168"/>
   <tile gid="168"/>
   <tile gid="194"/>
   <tile gid="195"/>
   <tile gid="357"/>
   <tile gid="75"/>
   <tile gid="76"/>
   <tile gid="33"/>
   <tile gid="34"/>
   <tile gid="10"/>
   <tile gid="10"/>
   <tile gid="10"/>
   <tile gid="1"/>
   <tile gid="1"/>
   <tile gid="1"/>
   <tile gid="10"/>
   <tile gid="35"/>
   <tile gid="36"/>
   <tile gid="10"/>
   <tile gid="2"/>
   <tile gid="195"/>
   <tile gid="196"/>
   <tile gid="168"/>
   <tile gid="168"/>
   <tile gid="168"/>
   <tile gid="168"/>
   <tile gid="194"/>
   <tile gid="195"/>
   <tile gid="357"/>
   <tile gid="10"/>
   <tile gid="10"/>
   <tile gid="42"/>
   <tile gid="43"/>
   <tile gid="10"/>
   <tile gid="10"/>
   <tile gid="10"/>
   <tile gid="1"/>
   <tile gid="1"/>
   <tile gid="1"/>
   <tile gid="10"/>
   <tile gid="75"/>
   <tile gid="76"/>
   <tile gid="10"/>
   <tile gid="2"/>
   <tile gid="195"/>
   <tile gid="196"/>
   <tile gid="168"/>
   <tile gid="168"/>
   <tile gid="168"/>
   <tile gid="168"/>
   <tile gid="194"/>
   <tile gid="674"/>
   <tile gid="357"/>
   <tile gid="10"/>
   <tile gid="10"/>
   <tile gid="35"/>
   <tile gid="36"/>
   <tile gid="10"/>
   <tile gid="10"/>
   <tile gid="10"/>
   <tile gid="1"/>
   <tile gid="1"/>
   <tile gid="1"/>
   <tile gid="35"/>
   <tile gid="36"/>
   <tile gid="10"/>
   <tile gid="10"/>
   <tile gid="2"/>
   <tile gid="195"/>
   <tile gid="196"/>
   <tile gid="168"/>
   <tile gid="168"/>
   <tile gid="5"/>
   <tile gid="168"/>
   <tile gid="194"/>
   <tile gid="195"/>
   <tile gid="357"/>
   <tile gid="10"/>
   <tile gid="10"/>
   <tile gid="75"/>
   <tile gid="76"/>
   <tile gid="10"/>
   <tile gid="10"/>
   <tile gid="10"/>
   <tile gid="1"/>
   <tile gid="1"/>
   <tile gid="11"/>
   <tile gid="75"/>
   <tile gid="76"/>
   <tile gid="35"/>
   <tile gid="36"/>
   <tile gid="2"/>
   <tile gid="195"/>
   <tile gid="209"/>
   <tile gid="174"/>
   <tile gid="168"/>
   <tile gid="168"/>
   <tile gid="168"/>
   <tile gid="194"/>
   <tile gid="366"/>
   <tile gid="425"/>
   <tile gid="10"/>
   <tile gid="33"/>
   <tile gid="34"/>
   <tile gid="10"/>
   <tile gid="10"/>
   <tile gid="10"/>
   <tile gid="10"/>
   <tile gid="1"/>
   <tile gid="1"/>
   <tile gid="10"/>
   <tile gid="10"/>
   <tile gid="10"/>
   <tile gid="75"/>
   <tile gid="76"/>
   <tile gid="2"/>
   <tile gid="195"/>
   <tile gid="195"/>
   <tile gid="196"/>
   <tile gid="5"/>
   <tile gid="168"/>
   <tile gid="168"/>
   <tile gid="194"/>
   <tile gid="357"/>
   <tile gid="10"/>
   <tile gid="10"/>
   <tile gid="42"/>
   <tile gid="43"/>
   <tile gid="35"/>
   <tile gid="36"/>
   <tile gid="10"/>
   <tile gid="10"/>
   <tile gid="1"/>
   <tile gid="11"/>
   <tile gid="10"/>
   <tile gid="35"/>
   <tile gid="36"/>
   <tile gid="10"/>
   <tile gid="10"/>
   <tile gid="197"/>
   <tile gid="199"/>
   <tile gid="195"/>
   <tile gid="196"/>
   <tile gid="168"/>
   <tile gid="5"/>
   <tile gid="168"/>
   <tile gid="194"/>
   <tile gid="357"/>
   <tile gid="10"/>
   <tile gid="10"/>
   <tile gid="10"/>
   <tile gid="10"/>
   <tile gid="75"/>
   <tile gid="76"/>
   <tile gid="10"/>
   <tile gid="10"/>
   <tile gid="1"/>
   <tile gid="10"/>
   <tile gid="10"/>
   <tile gid="75"/>
   <tile gid="76"/>
   <tile gid="10"/>
   <tile gid="10"/>
   <tile gid="10"/>
   <tile gid="197"/>
   <tile gid="198"/>
   <tile gid="199"/>
   <tile gid="168"/>
   <tile gid="168"/>
   <tile gid="168"/>
   <tile gid="194"/>
   <tile gid="357"/>
   <tile gid="10"/>
   <tile gid="10"/>
   <tile gid="10"/>
   <tile gid="10"/>
   <tile gid="10"/>
   <tile gid="10"/>
   <tile gid="10"/>
   <tile gid="10"/>
   <tile gid="1"/>
   <tile gid="10"/>
   <tile gid="10"/>
   <tile gid="10"/>
   <tile gid="10"/>
   <tile gid="10"/>
   <tile gid="10"/>
   <tile gid="10"/>
   <tile gid="10"/>
   <tile gid="10"/>
   <tile gid="2"/>
   <tile gid="168"/>
   <tile gid="168"/>
   <tile gid="168"/>
   <tile gid="194"/>
   <tile gid="357"/>
   <tile gid="10"/>
   <tile gid="10"/>
   <tile gid="10"/>
   <tile gid="10"/>
   <tile gid="35"/>
   <tile gid="36"/>
   <tile gid="10"/>
   <tile gid="10"/>
   <tile gid="1"/>
   <tile gid="10"/>
   <tile gid="10"/>
   <tile gid="10"/>
   <tile gid="10"/>
   <tile gid="10"/>
   <tile gid="10"/>
   <tile gid="10"/>
   <tile gid="10"/>
   <tile gid="10"/>
   <tile gid="2"/>
   <tile gid="168"/>
   <tile gid="168"/>
   <tile gid="168"/>
   <tile gid="194"/>
   <tile gid="357"/>
   <tile gid="10"/>
   <tile gid="10"/>
   <tile gid="10"/>
   <tile gid="10"/>
   <tile gid="75"/>
   <tile gid="76"/>
   <tile gid="10"/>
   <tile gid="10"/>
   <tile gid="1"/>
   <tile gid="10"/>
   <tile gid="35"/>
   <tile gid="36"/>
   <tile gid="10"/>
   <tile gid="10"/>
   <tile gid="10"/>
   <tile gid="10"/>
   <tile gid="10"/>
   <tile gid="10"/>
   <tile gid="2"/>
   <tile gid="168"/>
   <tile gid="168"/>
   <tile gid="168"/>
   <tile gid="366"/>
   <tile gid="425"/>
   <tile gid="10"/>
   <tile gid="10"/>
   <tile gid="10"/>
   <tile gid="10"/>
   <tile gid="10"/>
   <tile gid="10"/>
   <tile gid="35"/>
   <tile gid="36"/>
   <tile gid="11"/>
   <tile gid="10"/>
   <tile gid="75"/>
   <tile gid="76"/>
   <tile gid="10"/>
   <tile gid="10"/>
   <tile gid="10"/>
   <tile gid="35"/>
   <tile gid="36"/>
   <tile gid="10"/>
   <tile gid="2"/>
   <tile gid="168"/>
   <tile gid="168"/>
   <tile gid="168"/>
   <tile gid="357"/>
   <tile gid="10"/>
   <tile gid="10"/>
   <tile gid="10"/>
   <tile gid="10"/>
   <tile gid="10"/>
   <tile gid="10"/>
   <tile gid="10"/>
   <tile gid="75"/>
   <tile gid="76"/>
   <tile gid="10"/>
   <tile gid="33"/>
   <tile gid="34"/>
   <tile gid="10"/>
   <tile gid="10"/>
   <tile gid="10"/>
   <tile gid="10"/>
   <tile gid="75"/>
   <tile gid="76"/>
   <tile gid="10"/>
   <tile gid="2"/>
   <tile gid="5"/>
   <tile gid="5"/>
   <tile gid="5"/>
   <tile gid="357"/>
   <tile gid="10"/>
   <tile gid="10"/>
   <tile gid="10"/>
   <tile gid="10"/>
   <tile gid="33"/>
   <tile gid="34"/>
   <tile gid="10"/>
   <tile gid="33"/>
   <tile gid="34"/>
   <tile gid="10"/>
   <tile gid="42"/>
   <tile gid="43"/>
   <tile gid="10"/>
   <tile gid="10"/>
   <tile gid="10"/>
   <tile gid="10"/>
   <tile gid="10"/>
   <tile gid="10"/>
   <tile gid="10"/>
   <tile gid="2"/>
   <tile gid="5"/>
   <tile gid="5"/>
   <tile gid="5"/>
   <tile gid="357"/>
   <tile gid="10"/>
   <tile gid="10"/>
   <tile gid="10"/>
   <tile gid="10"/>
   <tile gid="42"/>
   <tile gid="43"/>
   <tile gid="10"/>
   <tile gid="42"/>
   <tile gid="43"/>
   <tile gid="10"/>
   <tile gid="35"/>
   <tile gid="36"/>
   <tile gid="10"/>
   <tile gid="10"/>
   <tile gid="10"/>
   <tile gid="10"/>
   <tile gid="10"/>
   <tile gid="10"/>
   <tile gid="10"/>
   <tile gid="2"/>
   <tile gid="323"/>
   <tile gid="324"/>
   <tile gid="325"/>
   <tile gid="357"/>
   <tile gid="10"/>
   <tile gid="10"/>
   <tile gid="10"/>
   <tile gid="10"/>
   <tile gid="10"/>
   <tile gid="10"/>
   <tile gid="10"/>
   <tile gid="35"/>
   <tile gid="36"/>
   <tile gid="10"/>
   <tile gid="75"/>
   <tile gid="76"/>
   <tile gid="10"/>
   <tile gid="10"/>
   <tile gid="10"/>
   <tile gid="10"/>
   <tile gid="10"/>
   <tile gid="10"/>
   <tile gid="10"/>
   <tile gid="2"/>
   <tile gid="395"/>
   <tile gid="368"/>
   <tile gid="396"/>
   <tile gid="357"/>
   <tile gid="10"/>
   <tile gid="10"/>
   <tile gid="10"/>
   <tile gid="10"/>
   <tile gid="10"/>
   <tile gid="10"/>
   <tile gid="10"/>
   <tile gid="75"/>
   <tile gid="76"/>
   <tile gid="33"/>
   <tile gid="34"/>
   <tile gid="10"/>
   <tile gid="10"/>
   <tile gid="10"/>
   <tile gid="35"/>
   <tile gid="36"/>
   <tile gid="10"/>
   <tile gid="10"/>
   <tile gid="10"/>
   <tile gid="2"/>
   <tile gid="395"/>
   <tile gid="368"/>
   <tile gid="396"/>
   <tile gid="357"/>
   <tile gid="10"/>
   <tile gid="10"/>
   <tile gid="10"/>
   <tile gid="10"/>
   <tile gid="10"/>
   <tile gid="10"/>
   <tile gid="33"/>
   <tile gid="34"/>
   <tile gid="10"/>
   <tile gid="42"/>
   <tile gid="43"/>
   <tile gid="10"/>
   <tile gid="10"/>
   <tile gid="10"/>
   <tile gid="75"/>
   <tile gid="76"/>
   <tile gid="10"/>
   <tile gid="10"/>
   <tile gid="10"/>
   <tile gid="2"/>
   <tile gid="395"/>
   <tile gid="368"/>
   <tile gid="396"/>
   <tile gid="357"/>
   <tile gid="10"/>
   <tile gid="10"/>
   <tile gid="10"/>
   <tile gid="10"/>
   <tile gid="10"/>
   <tile gid="10"/>
   <tile gid="42"/>
   <tile gid="43"/>
   <tile gid="10"/>
   <tile gid="35"/>
   <tile gid="36"/>
   <tile gid="10"/>
   <tile gid="10"/>
   <tile gid="10"/>
   <tile gid="10"/>
   <tile gid="10"/>
   <tile gid="10"/>
   <tile gid="10"/>
   <tile gid="10"/>
   <tile gid="2"/>
   <tile gid="486"/>
   <tile gid="589"/>
   <tile gid="487"/>
   <tile gid="357"/>
   <tile gid="10"/>
   <tile gid="10"/>
   <tile gid="10"/>
   <tile gid="10"/>
   <tile gid="10"/>
   <tile gid="10"/>
   <tile gid="10"/>
   <tile gid="35"/>
   <tile gid="36"/>
   <tile gid="75"/>
   <tile gid="76"/>
   <tile gid="10"/>
   <tile gid="10"/>
   <tile gid="10"/>
   <tile gid="10"/>
   <tile gid="10"/>
   <tile gid="10"/>
   <tile gid="10"/>
   <tile gid="10"/>
   <tile gid="2"/>
   <tile gid="486"/>
   <tile gid="589"/>
   <tile gid="487"/>
   <tile gid="357"/>
   <tile gid="10"/>
   <tile gid="10"/>
   <tile gid="10"/>
   <tile gid="10"/>
   <tile gid="10"/>
   <tile gid="10"/>
   <tile gid="10"/>
   <tile gid="75"/>
   <tile gid="76"/>
   <tile gid="10"/>
   <tile gid="10"/>
   <tile gid="10"/>
   <tile gid="10"/>
   <tile gid="10"/>
   <tile gid="10"/>
   <tile gid="10"/>
   <tile gid="10"/>
   <tile gid="10"/>
   <tile gid="10"/>
   <tile gid="2"/>
   <tile gid="486"/>
   <tile gid="589"/>
   <tile gid="487"/>
   <tile gid="357"/>
   <tile gid="10"/>
   <tile gid="10"/>
   <tile gid="10"/>
   <tile gid="10"/>
   <tile gid="10"/>
   <tile gid="35"/>
   <tile gid="36"/>
   <tile gid="10"/>
   <tile gid="10"/>
   <tile gid="10"/>
   <tile gid="10"/>
   <tile gid="10"/>
   <tile gid="10"/>
   <tile gid="10"/>
   <tile gid="10"/>
   <tile gid="10"/>
   <tile gid="10"/>
   <tile gid="10"/>
   <tile gid="10"/>
   <tile gid="515"/>
   <tile gid="516"/>
   <tile gid="517"/>
   <tile gid="518"/>
   <tile gid="519"/>
   <tile gid="520"/>
   <tile gid="10"/>
   <tile gid="10"/>
   <tile gid="33"/>
   <tile gid="34"/>
   <tile gid="75"/>
   <tile gid="76"/>
   <tile gid="10"/>
   <tile gid="451"/>
   <tile gid="10"/>
   <tile gid="10"/>
   <tile gid="10"/>
   <tile gid="10"/>
   <tile gid="10"/>
   <tile gid="10"/>
   <tile gid="10"/>
   <tile gid="10"/>
   <tile gid="545"/>
   <tile gid="546"/>
   <tile gid="547"/>
   <tile gid="548"/>
   <tile gid="549"/>
   <tile gid="550"/>
   <tile gid="551"/>
   <tile gid="552"/>
   <tile gid="10"/>
   <tile gid="10"/>
   <tile gid="42"/>
   <tile gid="43"/>
   <tile gid="10"/>
   <tile gid="35"/>
   <tile gid="36"/>
   <tile gid="1"/>
   <tile gid="10"/>
   <tile gid="10"/>
   <tile gid="10"/>
   <tile gid="10"/>
   <tile gid="10"/>
   <tile gid="10"/>
   <tile gid="10"/>
   <tile gid="10"/>
   <tile gid="577"/>
   <tile gid="578"/>
   <tile gid="579"/>
   <tile gid="580"/>
   <tile gid="581"/>
   <tile gid="582"/>
   <tile gid="583"/>
   <tile gid="584"/>
   <tile gid="10"/>
   <tile gid="10"/>
   <tile gid="10"/>
   <tile gid="10"/>
   <tile gid="10"/>
   <tile gid="75"/>
   <tile gid="76"/>
   <tile gid="1"/>
   <tile gid="10"/>
   <tile gid="10"/>
   <tile gid="10"/>
   <tile gid="10"/>
   <tile gid="10"/>
   <tile gid="10"/>
   <tile gid="10"/>
   <tile gid="10"/>
   <tile gid="10"/>
   <tile gid="610"/>
   <tile gid="611"/>
   <tile gid="612"/>
   <tile gid="613"/>
   <tile gid="614"/>
   <tile gid="615"/>
   <tile gid="616"/>
   <tile gid="10"/>
   <tile gid="10"/>
   <tile gid="10"/>
   <tile gid="35"/>
   <tile gid="36"/>
   <tile gid="10"/>
   <tile gid="10"/>
   <tile gid="1"/>
   <tile gid="10"/>
   <tile gid="10"/>
   <tile gid="10"/>
   <tile gid="10"/>
   <tile gid="10"/>
   <tile gid="10"/>
   <tile gid="10"/>
   <tile gid="10"/>
   <tile gid="10"/>
   <tile gid="10"/>
   <tile gid="10"/>
   <tile gid="10"/>
   <tile gid="10"/>
   <tile gid="10"/>
   <tile gid="10"/>
   <tile gid="10"/>
   <tile gid="10"/>
   <tile gid="35"/>
   <tile gid="36"/>
   <tile gid="75"/>
   <tile gid="76"/>
   <tile gid="10"/>
   <tile gid="10"/>
   <tile gid="1"/>
   <tile gid="10"/>
   <tile gid="10"/>
   <tile gid="10"/>
   <tile gid="10"/>
   <tile gid="10"/>
   <tile gid="10"/>
   <tile gid="10"/>
   <tile gid="10"/>
   <tile gid="33"/>
   <tile gid="34"/>
   <tile gid="10"/>
   <tile gid="10"/>
   <tile gid="10"/>
   <tile gid="10"/>
   <tile gid="10"/>
   <tile gid="10"/>
   <tile gid="10"/>
   <tile gid="75"/>
   <tile gid="76"/>
   <tile gid="10"/>
   <tile gid="10"/>
   <tile gid="451"/>
   <tile gid="1"/>
   <tile gid="1"/>
   <tile gid="10"/>
   <tile gid="10"/>
   <tile gid="35"/>
   <tile gid="36"/>
   <tile gid="33"/>
   <tile gid="34"/>
   <tile gid="35"/>
   <tile gid="36"/>
   <tile gid="42"/>
   <tile gid="43"/>
   <tile gid="35"/>
   <tile gid="36"/>
   <tile gid="33"/>
   <tile gid="34"/>
   <tile gid="10"/>
   <tile gid="10"/>
   <tile gid="35"/>
   <tile gid="36"/>
   <tile gid="10"/>
   <tile gid="10"/>
   <tile gid="10"/>
   <tile gid="1"/>
   <tile gid="1"/>
   <tile gid="1"/>
   <tile gid="35"/>
   <tile gid="36"/>
   <tile gid="75"/>
   <tile gid="76"/>
   <tile gid="42"/>
   <tile gid="43"/>
   <tile gid="75"/>
   <tile gid="76"/>
   <tile gid="35"/>
   <tile gid="36"/>
   <tile gid="75"/>
   <tile gid="76"/>
   <tile gid="42"/>
   <tile gid="43"/>
   <tile gid="35"/>
   <tile gid="36"/>
   <tile gid="75"/>
   <tile gid="76"/>
   <tile gid="10"/>
   <tile gid="451"/>
   <tile gid="1"/>
   <tile gid="1"/>
   <tile gid="1"/>
   <tile gid="1"/>
   <tile gid="75"/>
   <tile gid="76"/>
   <tile gid="10"/>
   <tile gid="451"/>
   <tile gid="1"/>
   <tile gid="1"/>
   <tile gid="272"/>
   <tile gid="10"/>
   <tile gid="75"/>
   <tile gid="76"/>
   <tile gid="10"/>
   <tile gid="10"/>
   <tile gid="10"/>
   <tile gid="10"/>
   <tile gid="75"/>
   <tile gid="76"/>
   <tile gid="10"/>
   <tile gid="451"/>
   <tile gid="1"/>
   <tile gid="1"/>
   <tile gid="1"/>
   <tile gid="1"/>
   <tile gid="1"/>
   <tile gid="1"/>
  </data>
 </layer>
 <layer id="2" name="NoBoat" width="24" height="44">
  <properties>
   <property name="Height" value="4"/>
   <property name="ID" value="0"/>
   <property name="Width" value="8"/>
   <property name="X" value="8"/>
   <property name="Y" value="35"/>
  </properties>
  <data>
   <tile/>
   <tile/>
   <tile/>
   <tile/>
   <tile/>
   <tile/>
   <tile/>
   <tile/>
   <tile/>
   <tile/>
   <tile/>
   <tile/>
   <tile/>
   <tile/>
   <tile/>
   <tile/>
   <tile/>
   <tile/>
   <tile/>
   <tile/>
   <tile/>
   <tile/>
   <tile/>
   <tile/>
   <tile/>
   <tile/>
   <tile/>
   <tile/>
   <tile/>
   <tile/>
   <tile/>
   <tile/>
   <tile/>
   <tile/>
   <tile/>
   <tile/>
   <tile/>
   <tile/>
   <tile/>
   <tile/>
   <tile/>
   <tile/>
   <tile/>
   <tile/>
   <tile/>
   <tile/>
   <tile/>
   <tile/>
   <tile/>
   <tile/>
   <tile/>
   <tile/>
   <tile/>
   <tile/>
   <tile/>
   <tile/>
   <tile/>
   <tile/>
   <tile/>
   <tile/>
   <tile/>
   <tile/>
   <tile/>
   <tile/>
   <tile/>
   <tile/>
   <tile/>
   <tile/>
   <tile/>
   <tile/>
   <tile/>
   <tile/>
   <tile/>
   <tile/>
   <tile/>
   <tile/>
   <tile/>
   <tile/>
   <tile/>
   <tile/>
   <tile/>
   <tile/>
   <tile/>
   <tile/>
   <tile/>
   <tile/>
   <tile/>
   <tile/>
   <tile/>
   <tile/>
   <tile/>
   <tile/>
   <tile/>
   <tile/>
   <tile/>
   <tile/>
   <tile/>
   <tile/>
   <tile/>
   <tile/>
   <tile/>
   <tile/>
   <tile/>
   <tile/>
   <tile/>
   <tile/>
   <tile/>
   <tile/>
   <tile/>
   <tile/>
   <tile/>
   <tile/>
   <tile/>
   <tile/>
   <tile/>
   <tile/>
   <tile/>
   <tile/>
   <tile/>
   <tile/>
   <tile/>
   <tile/>
   <tile/>
   <tile/>
   <tile/>
   <tile/>
   <tile/>
   <tile/>
   <tile/>
   <tile/>
   <tile/>
   <tile/>
   <tile/>
   <tile/>
   <tile/>
   <tile/>
   <tile/>
   <tile/>
   <tile/>
   <tile/>
   <tile/>
   <tile/>
   <tile/>
   <tile/>
   <tile/>
   <tile/>
   <tile/>
   <tile/>
   <tile/>
   <tile/>
   <tile/>
   <tile/>
   <tile/>
   <tile/>
   <tile/>
   <tile/>
   <tile/>
   <tile/>
   <tile/>
   <tile/>
   <tile/>
   <tile/>
   <tile/>
   <tile/>
   <tile/>
   <tile/>
   <tile/>
   <tile/>
   <tile/>
   <tile/>
   <tile/>
   <tile/>
   <tile/>
   <tile/>
   <tile/>
   <tile/>
   <tile/>
   <tile/>
   <tile/>
   <tile/>
   <tile/>
   <tile/>
   <tile/>
   <tile/>
   <tile/>
   <tile/>
   <tile/>
   <tile/>
   <tile/>
   <tile/>
   <tile/>
   <tile/>
   <tile/>
   <tile/>
   <tile/>
   <tile/>
   <tile/>
   <tile/>
   <tile/>
   <tile/>
   <tile/>
   <tile/>
   <tile/>
   <tile/>
   <tile/>
   <tile/>
   <tile/>
   <tile/>
   <tile/>
   <tile/>
   <tile/>
   <tile/>
   <tile/>
   <tile/>
   <tile/>
   <tile/>
   <tile/>
   <tile/>
   <tile/>
   <tile/>
   <tile/>
   <tile/>
   <tile/>
   <tile/>
   <tile/>
   <tile/>
   <tile/>
   <tile/>
   <tile/>
   <tile/>
   <tile/>
   <tile/>
   <tile/>
   <tile/>
   <tile/>
   <tile/>
   <tile/>
   <tile/>
   <tile/>
   <tile/>
   <tile/>
   <tile/>
   <tile/>
   <tile/>
   <tile/>
   <tile/>
   <tile/>
   <tile/>
   <tile/>
   <tile/>
   <tile/>
   <tile/>
   <tile/>
   <tile/>
   <tile/>
   <tile/>
   <tile/>
   <tile/>
   <tile/>
   <tile/>
   <tile/>
   <tile/>
   <tile/>
   <tile/>
   <tile/>
   <tile/>
   <tile/>
   <tile/>
   <tile/>
   <tile/>
   <tile/>
   <tile/>
   <tile/>
   <tile/>
   <tile/>
   <tile/>
   <tile/>
   <tile/>
   <tile/>
   <tile/>
   <tile/>
   <tile/>
   <tile/>
   <tile/>
   <tile/>
   <tile/>
   <tile/>
   <tile/>
   <tile/>
   <tile/>
   <tile/>
   <tile/>
   <tile/>
   <tile/>
   <tile/>
   <tile/>
   <tile/>
   <tile/>
   <tile/>
   <tile/>
   <tile/>
   <tile/>
   <tile/>
   <tile/>
   <tile/>
   <tile/>
   <tile/>
   <tile/>
   <tile/>
   <tile/>
   <tile/>
   <tile/>
   <tile/>
   <tile/>
   <tile/>
   <tile/>
   <tile/>
   <tile/>
   <tile/>
   <tile/>
   <tile/>
   <tile/>
   <tile/>
   <tile/>
   <tile/>
   <tile/>
   <tile/>
   <tile/>
   <tile/>
   <tile/>
   <tile/>
   <tile/>
   <tile/>
   <tile/>
   <tile/>
   <tile/>
   <tile/>
   <tile/>
   <tile/>
   <tile/>
   <tile/>
   <tile/>
   <tile/>
   <tile/>
   <tile/>
   <tile/>
   <tile/>
   <tile/>
   <tile/>
   <tile/>
   <tile/>
   <tile/>
   <tile/>
   <tile/>
   <tile/>
   <tile/>
   <tile/>
   <tile/>
   <tile/>
   <tile/>
   <tile/>
   <tile/>
   <tile/>
   <tile/>
   <tile/>
   <tile/>
   <tile/>
   <tile/>
   <tile/>
   <tile/>
   <tile/>
   <tile/>
   <tile/>
   <tile/>
   <tile/>
   <tile/>
   <tile/>
   <tile/>
   <tile/>
   <tile/>
   <tile/>
   <tile/>
   <tile/>
   <tile/>
   <tile/>
   <tile/>
   <tile/>
   <tile/>
   <tile/>
   <tile/>
   <tile/>
   <tile/>
   <tile/>
   <tile/>
   <tile/>
   <tile/>
   <tile/>
   <tile/>
   <tile/>
   <tile/>
   <tile/>
   <tile/>
   <tile/>
   <tile/>
   <tile/>
   <tile/>
   <tile/>
   <tile/>
   <tile/>
   <tile/>
   <tile/>
   <tile/>
   <tile/>
   <tile/>
   <tile/>
   <tile/>
   <tile/>
   <tile/>
   <tile/>
   <tile/>
   <tile/>
   <tile/>
   <tile/>
   <tile/>
   <tile/>
   <tile/>
   <tile/>
   <tile/>
   <tile/>
   <tile/>
   <tile/>
   <tile/>
   <tile/>
   <tile/>
   <tile/>
   <tile/>
   <tile/>
   <tile/>
   <tile/>
   <tile/>
   <tile/>
   <tile/>
   <tile/>
   <tile/>
   <tile/>
   <tile/>
   <tile/>
   <tile/>
   <tile/>
   <tile/>
   <tile/>
   <tile/>
   <tile/>
   <tile/>
   <tile/>
   <tile/>
   <tile/>
   <tile/>
   <tile/>
   <tile/>
   <tile/>
   <tile/>
   <tile/>
   <tile/>
   <tile/>
   <tile/>
   <tile/>
   <tile/>
   <tile/>
   <tile/>
   <tile/>
   <tile/>
   <tile/>
   <tile/>
   <tile/>
   <tile/>
   <tile/>
   <tile/>
   <tile/>
   <tile/>
   <tile/>
   <tile/>
   <tile/>
   <tile/>
   <tile/>
   <tile/>
   <tile/>
   <tile/>
   <tile/>
   <tile/>
   <tile/>
   <tile/>
   <tile/>
   <tile/>
   <tile/>
   <tile/>
   <tile/>
   <tile/>
   <tile/>
   <tile/>
   <tile/>
   <tile/>
   <tile/>
   <tile/>
   <tile/>
   <tile/>
   <tile/>
   <tile/>
   <tile/>
   <tile/>
   <tile/>
   <tile/>
   <tile/>
   <tile/>
   <tile/>
   <tile/>
   <tile/>
   <tile/>
   <tile/>
   <tile/>
   <tile/>
   <tile/>
   <tile/>
   <tile/>
   <tile/>
   <tile/>
   <tile/>
   <tile/>
   <tile/>
   <tile/>
   <tile/>
   <tile/>
   <tile/>
   <tile/>
   <tile/>
   <tile/>
   <tile/>
   <tile/>
   <tile/>
   <tile/>
   <tile/>
   <tile/>
   <tile/>
   <tile/>
   <tile/>
   <tile/>
   <tile/>
   <tile/>
   <tile/>
   <tile/>
   <tile/>
   <tile/>
   <tile/>
   <tile/>
   <tile/>
   <tile/>
   <tile/>
   <tile/>
   <tile/>
   <tile/>
   <tile/>
   <tile/>
   <tile/>
   <tile/>
   <tile/>
   <tile/>
   <tile/>
   <tile/>
   <tile/>
   <tile/>
   <tile/>
   <tile/>
   <tile/>
   <tile/>
   <tile/>
   <tile/>
   <tile/>
   <tile/>
   <tile/>
   <tile/>
   <tile/>
   <tile/>
   <tile/>
   <tile/>
   <tile/>
   <tile/>
   <tile/>
   <tile/>
   <tile/>
   <tile/>
   <tile/>
   <tile/>
   <tile/>
   <tile/>
   <tile/>
   <tile/>
   <tile/>
   <tile/>
   <tile/>
   <tile/>
   <tile/>
   <tile/>
   <tile/>
   <tile/>
   <tile/>
   <tile/>
   <tile/>
   <tile/>
   <tile/>
   <tile/>
   <tile/>
   <tile/>
   <tile/>
   <tile/>
   <tile/>
   <tile/>
   <tile/>
   <tile/>
   <tile/>
   <tile/>
   <tile/>
   <tile/>
   <tile/>
   <tile/>
   <tile/>
   <tile/>
   <tile/>
   <tile/>
   <tile/>
   <tile/>
   <tile/>
   <tile/>
   <tile/>
   <tile/>
   <tile/>
   <tile/>
   <tile/>
   <tile/>
   <tile/>
   <tile/>
   <tile/>
   <tile/>
   <tile/>
   <tile/>
   <tile/>
   <tile/>
   <tile/>
   <tile/>
   <tile/>
   <tile/>
   <tile/>
   <tile/>
   <tile/>
   <tile/>
   <tile/>
   <tile/>
   <tile/>
   <tile/>
   <tile/>
   <tile/>
   <tile/>
   <tile/>
   <tile/>
   <tile/>
   <tile/>
   <tile/>
   <tile/>
   <tile/>
   <tile/>
   <tile/>
   <tile/>
   <tile/>
   <tile/>
   <tile/>
   <tile/>
   <tile/>
   <tile/>
   <tile/>
   <tile/>
   <tile/>
   <tile/>
   <tile/>
   <tile/>
   <tile/>
   <tile/>
   <tile/>
   <tile/>
   <tile/>
   <tile/>
   <tile/>
   <tile/>
   <tile/>
   <tile/>
   <tile/>
   <tile/>
   <tile/>
   <tile/>
   <tile/>
   <tile/>
   <tile/>
   <tile/>
   <tile/>
   <tile/>
   <tile/>
   <tile/>
   <tile/>
   <tile/>
   <tile/>
   <tile/>
   <tile/>
   <tile/>
   <tile/>
   <tile/>
   <tile/>
   <tile/>
   <tile/>
   <tile/>
   <tile/>
   <tile/>
   <tile/>
   <tile/>
   <tile/>
   <tile/>
   <tile/>
   <tile/>
   <tile/>
   <tile/>
   <tile/>
   <tile/>
   <tile/>
   <tile/>
   <tile/>
   <tile/>
   <tile/>
   <tile/>
   <tile/>
   <tile/>
   <tile/>
   <tile/>
   <tile/>
   <tile/>
   <tile/>
   <tile/>
   <tile/>
   <tile/>
   <tile/>
   <tile/>
   <tile/>
   <tile/>
   <tile/>
   <tile/>
   <tile/>
   <tile/>
   <tile/>
   <tile/>
   <tile/>
   <tile/>
   <tile/>
   <tile/>
   <tile/>
   <tile/>
   <tile/>
   <tile/>
   <tile/>
   <tile/>
   <tile/>
   <tile/>
   <tile/>
   <tile/>
   <tile/>
   <tile/>
   <tile/>
   <tile/>
   <tile/>
   <tile/>
   <tile/>
   <tile/>
   <tile/>
   <tile/>
   <tile/>
   <tile/>
   <tile/>
   <tile/>
   <tile/>
   <tile/>
   <tile/>
   <tile/>
   <tile/>
   <tile/>
   <tile/>
   <tile/>
   <tile/>
   <tile/>
   <tile/>
   <tile/>
   <tile/>
   <tile/>
   <tile/>
   <tile/>
   <tile/>
   <tile/>
   <tile/>
   <tile/>
   <tile/>
   <tile/>
   <tile/>
   <tile/>
   <tile/>
   <tile/>
   <tile/>
   <tile/>
   <tile/>
   <tile/>
   <tile/>
   <tile/>
   <tile/>
   <tile/>
   <tile/>
   <tile/>
   <tile/>
   <tile/>
   <tile/>
   <tile/>
   <tile/>
   <tile/>
   <tile/>
   <tile/>
   <tile/>
   <tile/>
   <tile/>
   <tile/>
   <tile/>
   <tile/>
   <tile/>
   <tile/>
   <tile/>
   <tile/>
   <tile/>
   <tile/>
   <tile/>
   <tile/>
   <tile/>
   <tile/>
   <tile/>
   <tile/>
   <tile/>
   <tile/>
   <tile/>
   <tile gid="17"/>
   <tile gid="17"/>
   <tile gid="2"/>
   <tile gid="486"/>
   <tile gid="368"/>
   <tile gid="487"/>
   <tile gid="357"/>
   <tile gid="17"/>
   <tile/>
   <tile/>
   <tile/>
   <tile/>
   <tile/>
   <tile/>
   <tile/>
   <tile/>
   <tile/>
   <tile/>
   <tile/>
   <tile/>
   <tile/>
   <tile/>
   <tile/>
   <tile/>
   <tile gid="17"/>
   <tile gid="17"/>
   <tile gid="197"/>
   <tile gid="452"/>
   <tile gid="452"/>
   <tile gid="453"/>
   <tile gid="425"/>
   <tile gid="17"/>
   <tile/>
   <tile/>
   <tile/>
   <tile/>
   <tile/>
   <tile/>
   <tile/>
   <tile/>
   <tile/>
   <tile/>
   <tile/>
   <tile/>
   <tile/>
   <tile/>
   <tile/>
   <tile/>
   <tile gid="17"/>
   <tile gid="17"/>
   <tile gid="17"/>
   <tile gid="17"/>
   <tile gid="17"/>
   <tile gid="17"/>
   <tile gid="17"/>
   <tile gid="17"/>
   <tile/>
   <tile/>
   <tile/>
   <tile/>
   <tile/>
   <tile/>
   <tile/>
   <tile/>
   <tile/>
   <tile/>
   <tile/>
   <tile/>
   <tile/>
   <tile/>
   <tile/>
   <tile/>
   <tile gid="17"/>
   <tile gid="17"/>
   <tile gid="17"/>
   <tile gid="17"/>
   <tile gid="17"/>
   <tile gid="17"/>
   <tile gid="17"/>
   <tile gid="17"/>
   <tile/>
   <tile/>
   <tile/>
   <tile/>
   <tile/>
   <tile/>
   <tile/>
   <tile/>
   <tile/>
   <tile/>
   <tile/>
   <tile/>
   <tile/>
   <tile/>
   <tile/>
   <tile/>
   <tile/>
   <tile/>
   <tile/>
   <tile/>
   <tile/>
   <tile/>
   <tile/>
   <tile/>
   <tile/>
   <tile/>
   <tile/>
   <tile/>
   <tile/>
   <tile/>
   <tile/>
   <tile/>
   <tile/>
   <tile/>
   <tile/>
   <tile/>
   <tile/>
   <tile/>
   <tile/>
   <tile/>
   <tile/>
   <tile/>
   <tile/>
   <tile/>
   <tile/>
   <tile/>
   <tile/>
   <tile/>
   <tile/>
   <tile/>
   <tile/>
   <tile/>
   <tile/>
   <tile/>
   <tile/>
   <tile/>
   <tile/>
   <tile/>
   <tile/>
   <tile/>
   <tile/>
   <tile/>
   <tile/>
   <tile/>
   <tile/>
   <tile/>
   <tile/>
   <tile/>
   <tile/>
   <tile/>
   <tile/>
   <tile/>
   <tile/>
   <tile/>
   <tile/>
   <tile/>
   <tile/>
   <tile/>
   <tile/>
   <tile/>
   <tile/>
   <tile/>
   <tile/>
   <tile/>
   <tile/>
   <tile/>
   <tile/>
   <tile/>
   <tile/>
   <tile/>
   <tile/>
   <tile/>
   <tile/>
   <tile/>
   <tile/>
   <tile/>
   <tile/>
   <tile/>
   <tile/>
   <tile/>
   <tile/>
   <tile/>
   <tile/>
   <tile/>
   <tile/>
   <tile/>
   <tile/>
   <tile/>
   <tile/>
   <tile/>
   <tile/>
   <tile/>
   <tile/>
   <tile/>
   <tile/>
   <tile/>
   <tile/>
   <tile/>
   <tile/>
   <tile/>
   <tile/>
   <tile/>
   <tile/>
   <tile/>
   <tile/>
   <tile/>
   <tile/>
   <tile/>
  </data>
 </layer>
</map>
