<?xml version='1.0' encoding='UTF-8'?>
<map version="1.5" tiledversion="1.7.2" orientation="orthogonal" renderorder="right-down" width="24" height="44" tilewidth="16" tileheight="16" infinite="0" nextlayerid="2" nextobjectid="1">
 <tileset firstgid="1" name="Vermilion" tilewidth="16" tileheight="16" tilecount="1024" columns="32">
  <image source="Vermilion.png" trans="ffffff" width="512" height="512" />
 </tileset>
 <layer id="1" name="Tile Layer 1" width="24" height="44">
  <data>
   <tile gid="426" />
   <tile gid="642" />
   <tile gid="427" />
   <tile gid="427" />
   <tile gid="427" />
   <tile gid="428" />
   <tile gid="428" />
   <tile gid="646" />
   <tile gid="646" />
   <tile gid="646" />
   <tile gid="646" />
   <tile gid="646" />
   <tile gid="646" />
   <tile gid="646" />
   <tile gid="646" />
   <tile gid="646" />
   <tile gid="646" />
   <tile gid="647" />
   <tile gid="642" />
   <tile gid="427" />
   <tile gid="427" />
   <tile gid="427" />
   <tile gid="428" />
   <tile gid="428" />
   <tile gid="426" />
   <tile gid="642" />
   <tile gid="427" />
   <tile gid="427" />
   <tile gid="427" />
   <tile gid="428" />
   <tile gid="428" />
   <tile gid="673" />
   <tile gid="673" />
   <tile gid="673" />
   <tile gid="673" />
   <tile gid="673" />
   <tile gid="673" />
   <tile gid="673" />
   <tile gid="673" />
   <tile gid="673" />
   <tile gid="673" />
   <tile gid="647" />
   <tile gid="642" />
   <tile gid="427" />
   <tile gid="427" />
   <tile gid="427" />
   <tile gid="428" />
   <tile gid="428" />
   <tile gid="426" />
   <tile gid="642" />
   <tile gid="427" />
   <tile gid="427" />
   <tile gid="427" />
   <tile gid="428" />
   <tile gid="428" />
   <tile gid="673" />
   <tile gid="673" />
   <tile gid="673" />
   <tile gid="673" />
   <tile gid="673" />
   <tile gid="673" />
   <tile gid="673" />
   <tile gid="674" />
   <tile gid="673" />
   <tile gid="673" />
   <tile gid="647" />
   <tile gid="642" />
   <tile gid="427" />
   <tile gid="427" />
   <tile gid="427" />
   <tile gid="428" />
   <tile gid="428" />
   <tile gid="426" />
   <tile gid="642" />
   <tile gid="427" />
   <tile gid="427" />
   <tile gid="427" />
   <tile gid="428" />
   <tile gid="675" />
   <tile gid="676" />
   <tile gid="676" />
   <tile gid="676" />
   <tile gid="676" />
   <tile gid="677" />
   <tile gid="673" />
   <tile gid="673" />
   <tile gid="674" />
   <tile gid="673" />
   <tile gid="673" />
   <tile gid="647" />
   <tile gid="642" />
   <tile gid="427" />
   <tile gid="427" />
   <tile gid="427" />
   <tile gid="428" />
   <tile gid="428" />
   <tile gid="426" />
   <tile gid="642" />
   <tile gid="427" />
   <tile gid="427" />
   <tile gid="427" />
   <tile gid="428" />
   <tile gid="428" />
   <tile gid="673" />
   <tile gid="673" />
   <tile gid="673" />
   <tile gid="673" />
   <tile gid="673" />
   <tile gid="673" />
   <tile gid="673" />
   <tile gid="674" />
   <tile gid="673" />
   <tile gid="673" />
   <tile gid="647" />
   <tile gid="678" />
   <tile gid="679" />
   <tile gid="427" />
   <tile gid="427" />
   <tile gid="428" />
   <tile gid="428" />
   <tile gid="426" />
   <tile gid="642" />
   <tile gid="427" />
   <tile gid="427" />
   <tile gid="427" />
   <tile gid="428" />
   <tile gid="675" />
   <tile gid="676" />
   <tile gid="676" />
   <tile gid="677" />
   <tile gid="673" />
   <tile gid="673" />
   <tile gid="673" />
   <tile gid="673" />
   <tile gid="674" />
   <tile gid="673" />
   <tile gid="673" />
   <tile gid="647" />
   <tile gid="427" />
   <tile gid="642" />
   <tile gid="427" />
   <tile gid="427" />
   <tile gid="428" />
   <tile gid="428" />
   <tile gid="426" />
   <tile gid="678" />
   <tile gid="679" />
   <tile gid="427" />
   <tile gid="680" />
   <tile gid="705" />
   <tile gid="428" />
   <tile gid="673" />
   <tile gid="673" />
   <tile gid="673" />
   <tile gid="673" />
   <tile gid="673" />
   <tile gid="673" />
   <tile gid="673" />
   <tile gid="674" />
   <tile gid="673" />
   <tile gid="673" />
   <tile gid="647" />
   <tile gid="427" />
   <tile gid="642" />
   <tile gid="427" />
   <tile gid="680" />
   <tile gid="705" />
   <tile gid="428" />
   <tile gid="426" />
   <tile gid="427" />
   <tile gid="678" />
   <tile gid="706" />
   <tile gid="705" />
   <tile gid="427" />
   <tile gid="675" />
   <tile gid="676" />
   <tile gid="676" />
   <tile gid="676" />
   <tile gid="676" />
   <tile gid="676" />
   <tile gid="677" />
   <tile gid="673" />
   <tile gid="673" />
   <tile gid="673" />
   <tile gid="673" />
   <tile gid="647" />
   <tile gid="427" />
   <tile gid="678" />
   <tile gid="706" />
   <tile gid="705" />
   <tile gid="427" />
   <tile gid="428" />
   <tile gid="707" />
   <tile gid="706" />
   <tile gid="706" />
   <tile gid="706" />
   <tile gid="706" />
   <tile gid="706" />
   <tile gid="708" />
   <tile gid="673" />
   <tile gid="673" />
   <tile gid="673" />
   <tile gid="673" />
   <tile gid="673" />
   <tile gid="673" />
   <tile gid="673" />
   <tile gid="673" />
   <tile gid="673" />
   <tile gid="673" />
   <tile gid="709" />
   <tile gid="706" />
   <tile gid="706" />
   <tile gid="706" />
   <tile gid="706" />
   <tile gid="706" />
   <tile gid="433" />
   <tile gid="198" />
   <tile gid="198" />
   <tile gid="198" />
   <tile gid="198" />
   <tile gid="198" />
   <tile gid="449" />
   <tile gid="737" />
   <tile gid="199" />
   <tile gid="673" />
   <tile gid="673" />
   <tile gid="673" />
   <tile gid="673" />
   <tile gid="673" />
   <tile gid="673" />
   <tile gid="673" />
   <tile gid="673" />
   <tile gid="366" />
   <tile gid="449" />
   <tile gid="737" />
   <tile gid="198" />
   <tile gid="198" />
   <tile gid="198" />
   <tile gid="198" />
   <tile gid="198" />
   <tile gid="1" />
   <tile gid="272" />
   <tile gid="10" />
   <tile gid="10" />
   <tile gid="10" />
   <tile gid="75" />
   <tile gid="76" />
   <tile gid="2" />
   <tile gid="673" />
   <tile gid="673" />
   <tile gid="673" />
   <tile gid="673" />
   <tile gid="673" />
   <tile gid="673" />
   <tile gid="673" />
   <tile gid="673" />
   <tile gid="357" />
   <tile gid="75" />
   <tile gid="76" />
   <tile gid="10" />
   <tile gid="10" />
   <tile gid="451" />
   <tile gid="1" />
   <tile gid="1" />
   <tile gid="1" />
   <tile gid="1" />
   <tile gid="1" />
   <tile gid="272" />
   <tile gid="10" />
   <tile gid="33" />
   <tile gid="34" />
   <tile gid="2" />
   <tile gid="673" />
   <tile gid="673" />
   <tile gid="673" />
   <tile gid="673" />
   <tile gid="673" />
   <tile gid="673" />
   <tile gid="673" />
   <tile gid="673" />
   <tile gid="357" />
   <tile gid="33" />
   <tile gid="34" />
   <tile gid="10" />
   <tile gid="451" />
   <tile gid="1" />
   <tile gid="1" />
   <tile gid="1" />
   <tile gid="1" />
   <tile gid="1" />
   <tile gid="1" />
   <tile gid="1" />
   <tile gid="10" />
   <tile gid="42" />
   <tile gid="43" />
   <tile gid="2" />
   <tile gid="673" />
   <tile gid="673" />
   <tile gid="673" />
   <tile gid="673" />
   <tile gid="673" />
   <tile gid="673" />
   <tile gid="673" />
   <tile gid="673" />
   <tile gid="357" />
   <tile gid="42" />
   <tile gid="43" />
   <tile gid="10" />
   <tile gid="1" />
   <tile gid="1" />
   <tile gid="1" />
   <tile gid="1" />
   <tile gid="1" />
   <tile gid="1" />
   <tile gid="1" />
   <tile gid="1" />
   <tile gid="10" />
   <tile gid="35" />
   <tile gid="36" />
   <tile gid="2" />
   <tile gid="673" />
   <tile gid="673" />
   <tile gid="673" />
   <tile gid="673" />
   <tile gid="673" />
   <tile gid="673" />
   <tile gid="673" />
   <tile gid="673" />
   <tile gid="357" />
   <tile gid="35" />
   <tile gid="36" />
   <tile gid="10" />
   <tile gid="1" />
   <tile gid="1" />
   <tile gid="1" />
   <tile gid="1" />
   <tile gid="1" />
   <tile gid="1" />
   <tile gid="1" />
   <tile gid="11" />
   <tile gid="10" />
   <tile gid="75" />
   <tile gid="76" />
   <tile gid="2" />
   <tile gid="673" />
   <tile gid="673" />
   <tile gid="673" />
   <tile gid="673" />
   <tile gid="673" />
   <tile gid="673" />
   <tile gid="673" />
   <tile gid="673" />
   <tile gid="357" />
   <tile gid="75" />
   <tile gid="76" />
   <tile gid="33" />
   <tile gid="34" />
   <tile gid="10" />
   <tile gid="1" />
   <tile gid="1" />
   <tile gid="1" />
   <tile gid="1" />
   <tile gid="1" />
   <tile gid="10" />
   <tile gid="35" />
   <tile gid="36" />
   <tile gid="10" />
   <tile gid="2" />
   <tile gid="673" />
   <tile gid="673" />
   <tile gid="673" />
   <tile gid="673" />
   <tile gid="673" />
   <tile gid="673" />
   <tile gid="673" />
   <tile gid="673" />
   <tile gid="357" />
   <tile gid="10" />
   <tile gid="10" />
   <tile gid="42" />
   <tile gid="43" />
   <tile gid="10" />
   <tile gid="1" />
   <tile gid="1" />
   <tile gid="1" />
   <tile gid="1" />
   <tile gid="1" />
   <tile gid="10" />
   <tile gid="75" />
   <tile gid="76" />
   <tile gid="10" />
   <tile gid="2" />
   <tile gid="673" />
   <tile gid="673" />
   <tile gid="673" />
   <tile gid="673" />
   <tile gid="673" />
   <tile gid="673" />
   <tile gid="673" />
   <tile gid="673" />
   <tile gid="357" />
   <tile gid="10" />
   <tile gid="10" />
   <tile gid="35" />
   <tile gid="36" />
   <tile gid="10" />
   <tile gid="1" />
   <tile gid="1" />
   <tile gid="1" />
   <tile gid="1" />
   <tile gid="1" />
   <tile gid="35" />
   <tile gid="36" />
   <tile gid="10" />
   <tile gid="10" />
   <tile gid="2" />
   <tile gid="673" />
   <tile gid="673" />
   <tile gid="673" />
   <tile gid="673" />
   <tile gid="673" />
   <tile gid="673" />
   <tile gid="673" />
   <tile gid="673" />
   <tile gid="357" />
   <tile gid="10" />
   <tile gid="10" />
   <tile gid="75" />
   <tile gid="76" />
   <tile gid="10" />
   <tile gid="1" />
   <tile gid="1" />
   <tile gid="1" />
   <tile gid="1" />
   <tile gid="11" />
   <tile gid="75" />
   <tile gid="76" />
   <tile gid="35" />
   <tile gid="36" />
   <tile gid="2" />
   <tile gid="673" />
   <tile gid="673" />
   <tile gid="673" />
   <tile gid="673" />
   <tile gid="673" />
   <tile gid="673" />
   <tile gid="673" />
   <tile gid="366" />
   <tile gid="425" />
   <tile gid="10" />
   <tile gid="33" />
   <tile gid="34" />
   <tile gid="35" />
   <tile gid="36" />
   <tile gid="10" />
   <tile gid="1" />
   <tile gid="1" />
   <tile gid="1" />
   <tile gid="10" />
   <tile gid="10" />
   <tile gid="10" />
   <tile gid="75" />
   <tile gid="76" />
   <tile gid="2" />
   <tile gid="673" />
   <tile gid="673" />
   <tile gid="673" />
   <tile gid="673" />
   <tile gid="673" />
   <tile gid="673" />
   <tile gid="673" />
   <tile gid="357" />
   <tile gid="10" />
   <tile gid="10" />
   <tile gid="42" />
   <tile gid="43" />
   <tile gid="75" />
   <tile gid="76" />
   <tile gid="10" />
   <tile gid="1" />
   <tile gid="1" />
   <tile gid="11" />
   <tile gid="10" />
   <tile gid="35" />
   <tile gid="36" />
   <tile gid="10" />
   <tile gid="10" />
   <tile gid="197" />
   <tile gid="199" />
   <tile gid="673" />
   <tile gid="673" />
   <tile gid="673" />
   <tile gid="673" />
   <tile gid="673" />
   <tile gid="673" />
   <tile gid="357" />
   <tile gid="10" />
   <tile gid="10" />
   <tile gid="10" />
   <tile gid="10" />
   <tile gid="10" />
   <tile gid="33" />
   <tile gid="34" />
   <tile gid="1" />
   <tile gid="1" />
   <tile gid="10" />
   <tile gid="10" />
   <tile gid="75" />
   <tile gid="76" />
   <tile gid="10" />
   <tile gid="10" />
   <tile gid="10" />
   <tile gid="197" />
   <tile gid="198" />
   <tile gid="199" />
   <tile gid="673" />
   <tile gid="673" />
   <tile gid="673" />
   <tile gid="673" />
   <tile gid="357" />
   <tile gid="10" />
   <tile gid="10" />
   <tile gid="10" />
   <tile gid="10" />
   <tile gid="10" />
   <tile gid="42" />
   <tile gid="43" />
   <tile gid="1" />
   <tile gid="1" />
   <tile gid="35" />
   <tile gid="36" />
   <tile gid="10" />
   <tile gid="10" />
   <tile gid="10" />
   <tile gid="10" />
   <tile gid="10" />
   <tile gid="10" />
   <tile gid="10" />
   <tile gid="2" />
   <tile gid="673" />
   <tile gid="673" />
   <tile gid="673" />
   <tile gid="673" />
   <tile gid="357" />
   <tile gid="10" />
   <tile gid="10" />
   <tile gid="10" />
   <tile gid="10" />
   <tile gid="10" />
   <tile gid="35" />
   <tile gid="36" />
   <tile gid="1" />
   <tile gid="1" />
   <tile gid="75" />
   <tile gid="76" />
   <tile gid="10" />
   <tile gid="10" />
   <tile gid="10" />
   <tile gid="10" />
   <tile gid="10" />
   <tile gid="10" />
   <tile gid="10" />
   <tile gid="2" />
   <tile gid="673" />
   <tile gid="673" />
   <tile gid="673" />
   <tile gid="673" />
   <tile gid="357" />
   <tile gid="10" />
   <tile gid="10" />
   <tile gid="10" />
   <tile gid="10" />
   <tile gid="10" />
   <tile gid="75" />
   <tile gid="76" />
   <tile gid="10" />
   <tile gid="35" />
   <tile gid="36" />
   <tile gid="10" />
   <tile gid="10" />
   <tile gid="10" />
   <tile gid="10" />
   <tile gid="10" />
   <tile gid="10" />
   <tile gid="10" />
   <tile gid="10" />
   <tile gid="2" />
   <tile gid="673" />
   <tile gid="673" />
   <tile gid="673" />
   <tile gid="366" />
   <tile gid="425" />
   <tile gid="10" />
   <tile gid="10" />
   <tile gid="10" />
   <tile gid="10" />
   <tile gid="10" />
   <tile gid="10" />
   <tile gid="35" />
   <tile gid="36" />
   <tile gid="75" />
   <tile gid="76" />
   <tile gid="10" />
   <tile gid="10" />
   <tile gid="10" />
   <tile gid="10" />
   <tile gid="10" />
   <tile gid="35" />
   <tile gid="36" />
   <tile gid="10" />
   <tile gid="2" />
   <tile gid="673" />
   <tile gid="673" />
   <tile gid="673" />
   <tile gid="357" />
   <tile gid="10" />
   <tile gid="10" />
   <tile gid="10" />
   <tile gid="10" />
   <tile gid="10" />
   <tile gid="10" />
   <tile gid="10" />
   <tile gid="75" />
   <tile gid="76" />
   <tile gid="10" />
   <tile gid="33" />
   <tile gid="34" />
   <tile gid="10" />
   <tile gid="10" />
   <tile gid="10" />
   <tile gid="10" />
   <tile gid="75" />
   <tile gid="76" />
   <tile gid="10" />
   <tile gid="2" />
   <tile gid="673" />
   <tile gid="673" />
   <tile gid="673" />
   <tile gid="357" />
   <tile gid="10" />
   <tile gid="10" />
   <tile gid="10" />
   <tile gid="10" />
   <tile gid="33" />
   <tile gid="34" />
   <tile gid="10" />
   <tile gid="33" />
   <tile gid="34" />
   <tile gid="10" />
   <tile gid="42" />
   <tile gid="43" />
   <tile gid="10" />
   <tile gid="10" />
   <tile gid="10" />
   <tile gid="10" />
   <tile gid="10" />
   <tile gid="10" />
   <tile gid="10" />
   <tile gid="2" />
   <tile gid="673" />
   <tile gid="673" />
   <tile gid="673" />
   <tile gid="357" />
   <tile gid="10" />
   <tile gid="10" />
   <tile gid="10" />
   <tile gid="10" />
   <tile gid="42" />
   <tile gid="43" />
   <tile gid="10" />
   <tile gid="42" />
   <tile gid="43" />
   <tile gid="10" />
   <tile gid="35" />
   <tile gid="36" />
   <tile gid="10" />
   <tile gid="10" />
   <tile gid="10" />
   <tile gid="10" />
   <tile gid="10" />
   <tile gid="10" />
   <tile gid="10" />
   <tile gid="2" />
   <tile gid="673" />
   <tile gid="673" />
   <tile gid="673" />
   <tile gid="357" />
   <tile gid="10" />
   <tile gid="10" />
   <tile gid="10" />
   <tile gid="10" />
   <tile gid="10" />
   <tile gid="10" />
   <tile gid="10" />
   <tile gid="35" />
   <tile gid="36" />
   <tile gid="10" />
   <tile gid="75" />
   <tile gid="76" />
   <tile gid="10" />
   <tile gid="10" />
   <tile gid="10" />
   <tile gid="10" />
   <tile gid="10" />
   <tile gid="10" />
   <tile gid="10" />
   <tile gid="2" />
   <tile gid="673" />
   <tile gid="673" />
   <tile gid="673" />
   <tile gid="357" />
   <tile gid="10" />
   <tile gid="10" />
   <tile gid="10" />
   <tile gid="10" />
   <tile gid="10" />
   <tile gid="10" />
   <tile gid="10" />
   <tile gid="75" />
   <tile gid="76" />
   <tile gid="33" />
   <tile gid="34" />
   <tile gid="10" />
   <tile gid="10" />
   <tile gid="10" />
   <tile gid="35" />
   <tile gid="36" />
   <tile gid="10" />
   <tile gid="10" />
   <tile gid="10" />
   <tile gid="2" />
   <tile gid="673" />
   <tile gid="673" />
   <tile gid="673" />
   <tile gid="357" />
   <tile gid="10" />
   <tile gid="10" />
   <tile gid="10" />
   <tile gid="10" />
   <tile gid="10" />
   <tile gid="10" />
   <tile gid="33" />
   <tile gid="34" />
   <tile gid="10" />
   <tile gid="42" />
   <tile gid="43" />
   <tile gid="10" />
   <tile gid="10" />
   <tile gid="10" />
   <tile gid="75" />
   <tile gid="76" />
   <tile gid="10" />
   <tile gid="10" />
   <tile gid="10" />
   <tile gid="2" />
   <tile gid="673" />
   <tile gid="673" />
   <tile gid="673" />
   <tile gid="357" />
   <tile gid="10" />
   <tile gid="10" />
   <tile gid="10" />
   <tile gid="10" />
   <tile gid="10" />
   <tile gid="10" />
   <tile gid="42" />
   <tile gid="43" />
   <tile gid="10" />
   <tile gid="35" />
   <tile gid="36" />
   <tile gid="10" />
   <tile gid="10" />
   <tile gid="10" />
   <tile gid="10" />
   <tile gid="10" />
   <tile gid="10" />
   <tile gid="10" />
   <tile gid="10" />
   <tile gid="2" />
   <tile gid="673" />
   <tile gid="673" />
   <tile gid="673" />
   <tile gid="357" />
   <tile gid="10" />
   <tile gid="10" />
   <tile gid="10" />
   <tile gid="10" />
   <tile gid="10" />
   <tile gid="10" />
   <tile gid="10" />
   <tile gid="35" />
   <tile gid="36" />
   <tile gid="75" />
   <tile gid="76" />
   <tile gid="10" />
   <tile gid="10" />
   <tile gid="10" />
   <tile gid="10" />
   <tile gid="10" />
   <tile gid="10" />
   <tile gid="10" />
   <tile gid="10" />
   <tile gid="2" />
   <tile gid="673" />
   <tile gid="673" />
   <tile gid="673" />
   <tile gid="357" />
   <tile gid="10" />
   <tile gid="10" />
   <tile gid="10" />
   <tile gid="10" />
   <tile gid="10" />
   <tile gid="10" />
   <tile gid="10" />
   <tile gid="75" />
   <tile gid="76" />
   <tile gid="10" />
   <tile gid="10" />
   <tile gid="10" />
   <tile gid="10" />
   <tile gid="10" />
   <tile gid="10" />
   <tile gid="10" />
   <tile gid="10" />
   <tile gid="10" />
   <tile gid="10" />
   <tile gid="2" />
   <tile gid="673" />
   <tile gid="673" />
   <tile gid="673" />
   <tile gid="357" />
   <tile gid="10" />
   <tile gid="10" />
   <tile gid="10" />
   <tile gid="10" />
   <tile gid="10" />
   <tile gid="35" />
   <tile gid="36" />
   <tile gid="10" />
   <tile gid="10" />
   <tile gid="10" />
   <tile gid="10" />
   <tile gid="10" />
   <tile gid="10" />
   <tile gid="10" />
   <tile gid="10" />
   <tile gid="10" />
   <tile gid="10" />
   <tile gid="10" />
   <tile gid="10" />
   <tile gid="197" />
   <tile gid="199" />
   <tile gid="673" />
   <tile gid="673" />
   <tile gid="357" />
   <tile gid="10" />
   <tile gid="10" />
   <tile gid="10" />
   <tile gid="33" />
   <tile gid="34" />
   <tile gid="75" />
   <tile gid="76" />
   <tile gid="10" />
   <tile gid="451" />
   <tile gid="10" />
   <tile gid="10" />
   <tile gid="10" />
   <tile gid="10" />
   <tile gid="10" />
   <tile gid="10" />
   <tile gid="10" />
   <tile gid="10" />
   <tile gid="10" />
   <tile gid="10" />
   <tile gid="10" />
   <tile gid="197" />
   <tile gid="198" />
   <tile gid="198" />
   <tile gid="425" />
   <tile gid="10" />
   <tile gid="10" />
   <tile gid="10" />
   <tile gid="42" />
   <tile gid="43" />
   <tile gid="10" />
   <tile gid="35" />
   <tile gid="36" />
   <tile gid="1" />
   <tile gid="10" />
   <tile gid="10" />
   <tile gid="10" />
   <tile gid="35" />
   <tile gid="36" />
   <tile gid="10" />
   <tile gid="10" />
   <tile gid="10" />
   <tile gid="10" />
   <tile gid="10" />
   <tile gid="10" />
   <tile gid="10" />
   <tile gid="10" />
   <tile gid="10" />
   <tile gid="10" />
   <tile gid="10" />
   <tile gid="10" />
   <tile gid="10" />
   <tile gid="10" />
   <tile gid="10" />
   <tile gid="10" />
   <tile gid="75" />
   <tile gid="76" />
   <tile gid="1" />
   <tile gid="10" />
   <tile gid="10" />
   <tile gid="10" />
   <tile gid="75" />
   <tile gid="76" />
   <tile gid="10" />
   <tile gid="10" />
   <tile gid="10" />
   <tile gid="10" />
   <tile gid="10" />
   <tile gid="10" />
   <tile gid="10" />
   <tile gid="10" />
   <tile gid="35" />
   <tile gid="36" />
   <tile gid="10" />
   <tile gid="10" />
   <tile gid="10" />
   <tile gid="10" />
   <tile gid="35" />
   <tile gid="36" />
   <tile gid="10" />
   <tile gid="10" />
   <tile gid="1" />
   <tile gid="10" />
   <tile gid="10" />
   <tile gid="10" />
   <tile gid="10" />
   <tile gid="10" />
   <tile gid="10" />
   <tile gid="10" />
   <tile gid="10" />
   <tile gid="33" />
   <tile gid="34" />
   <tile gid="10" />
   <tile gid="10" />
   <tile gid="10" />
   <tile gid="75" />
   <tile gid="76" />
   <tile gid="10" />
   <tile gid="10" />
   <tile gid="35" />
   <tile gid="36" />
   <tile gid="75" />
   <tile gid="76" />
   <tile gid="10" />
   <tile gid="10" />
   <tile gid="1" />
   <tile gid="10" />
   <tile gid="10" />
   <tile gid="10" />
   <tile gid="10" />
   <tile gid="10" />
   <tile gid="10" />
   <tile gid="10" />
   <tile gid="10" />
   <tile gid="42" />
   <tile gid="43" />
   <tile gid="10" />
   <tile gid="10" />
   <tile gid="10" />
   <tile gid="10" />
   <tile gid="10" />
   <tile gid="10" />
   <tile gid="10" />
   <tile gid="75" />
   <tile gid="76" />
   <tile gid="10" />
   <tile gid="10" />
   <tile gid="451" />
   <tile gid="1" />
   <tile gid="1" />
   <tile gid="10" />
   <tile gid="10" />
   <tile gid="35" />
   <tile gid="36" />
   <tile gid="33" />
   <tile gid="34" />
   <tile gid="35" />
   <tile gid="36" />
   <tile gid="10" />
   <tile gid="10" />
   <tile gid="35" />
   <tile gid="36" />
   <tile gid="33" />
   <tile gid="34" />
   <tile gid="10" />
   <tile gid="10" />
   <tile gid="35" />
   <tile gid="36" />
   <tile gid="10" />
   <tile gid="10" />
   <tile gid="10" />
   <tile gid="1" />
   <tile gid="1" />
   <tile gid="1" />
   <tile gid="35" />
   <tile gid="36" />
   <tile gid="75" />
   <tile gid="76" />
   <tile gid="42" />
   <tile gid="43" />
   <tile gid="75" />
   <tile gid="76" />
   <tile gid="35" />
   <tile gid="36" />
   <tile gid="75" />
   <tile gid="76" />
   <tile gid="42" />
   <tile gid="43" />
   <tile gid="35" />
   <tile gid="36" />
   <tile gid="75" />
   <tile gid="76" />
   <tile gid="10" />
   <tile gid="451" />
   <tile gid="1" />
   <tile gid="1" />
   <tile gid="1" />
   <tile gid="1" />
   <tile gid="75" />
   <tile gid="76" />
   <tile gid="10" />
   <tile gid="451" />
   <tile gid="1" />
   <tile gid="1" />
   <tile gid="272" />
   <tile gid="10" />
   <tile gid="75" />
   <tile gid="76" />
   <tile gid="10" />
   <tile gid="10" />
   <tile gid="10" />
   <tile gid="10" />
   <tile gid="75" />
   <tile gid="76" />
   <tile gid="10" />
   <tile gid="451" />
   <tile gid="1" />
   <tile gid="1" />
   <tile gid="1" />
   <tile gid="1" />
   <tile gid="1" />
   <tile gid="1" />
  </data>
 </layer>
</map>